X:1
T:Title
%%score ( 1 2 ) ( 3 4 )
L:1/8
Q:1/4=100
M:4/4
K:D
V:1 treble nm="Midi_20"
V:2 treble 
V:3 bass nm="Midi_20"
V:4 bass 
V:1
"^Lancashire (7 6. 7 6. D.)""^Henry Smart\n(1813-1879)""^tr. John Mason Neale\n(1818-66)""^The day of resurrection!" A2 | %1
w: The|
w: Our|
w: Now|
 A2 F2 G2 B2 | A4 F2 d2 | d2 G2 A2 B2 | E6 || A2 | A2 F2 G2 B2 | A4 F2 F2 | E2 c2 B2 ^G2 | A6 || %10
w: day of re- sur-|rec- tion! Earth,|tell it out a-|broad;|The|pass- o- ver of|glad- ness, The|pass- o- ver of|God!|
w: hearts be pure from|e- vil, That|we may see a-|right|The|Lord in rays e-|ter- nal Of|re- sur- rec- tion|light,|
w: let the heavens be|joy- ful; Let|earth her song be-|gin;|The|round world keep high|tri- umph, And|all that is there-|in;|
 A2 | A2 F2 D2 d2 | (d3 B) G2 B2 | B2 ^G2 E2 e2 | (e4 c2) || A2 | d2 d2 d2 d2 | d4 c2 B2 | %18
w: From|death to life e-|ter\- * nal, From|earth un- to the|sky, *|Our|Christ hath brought us|o- ver With|
w: And,|listen- ing to his|ac\- * cents, May|hear, so calm and|plain, *|His|own, 'All hail!' and|hear- ing, May|
w: Let|all things seen and|un\- * seen Their|notes of glad- ness|blend, *|For|Christ the Lord hath|ri- sen, Our|
 A2 F2 E2 C2 | D6 |] %20
w: hymns of vic- to-|ry.|
w: raise the vic- tor|strain.|
w: Joy that hath no|end.|
V:2
 D2 | D2 D2 D2 D2 | D4 D2 F2 | G2 D2 D2 D2 | C6 || C2 | D2 D2 D2 D2 | D4 D2 D2 | C2 E2 D2 D2 | %9
 C6 || C2 | D2 D2 A,2 F2 | G4 D2 ^D2 | E2 E2 B,2 ^G2 | A6 || E2 | A,2 D2 E2 F2 | G4 D2 D2 | %18
 D2 D2 A,2 A,2 | A,6 |] %20
V:3
 F,2 | F,2 A,2 B,2 G,2 | F,4 A,2 A,2 | B,2 D2 C2 B,2 | A,6 || G,2 | F,2 =C2 B,2 G,2 | F,4 A,2 A,2 | %8
 A,2 A,2 ^G,2 B,2 | A,6 || =G,2 | F,2 =C2 C2 C2 | (B,3 D) B,2 A,2 | ^G,2 D2 D2 D2 | (C4 E2) || C2 | %16
 D2 A,2 B,2 =C2 | B,4 D2 G,2 | F,2 A,2 G,2 E,2 | F,6 |] %20
V:4
 D,2 | D,2 D,2 D,2 D,2 | D,4 D,2 =C,2 | B,,2 B,,2 A,,2 G,,2 | A,,6 || A,,2 | D,2 D,2 D,2 D,2 | %7
 D,4 D,2 D,2 | E,2 E,2 E,2 E,2 | A,,6 || A,,2 | D,2 A,2 F,2 D,2 | G,,4 G,2 F,2 | E,2 B,2 ^G,2 E,2 | %14
 (A,,4 A,2) || =G,2 | F,2 F,2 G,2 A,2 | B,4 G,2 G,,2 | A,,2 A,,2 A,,2 A,,2 | D,6 |] %20

